docs/content/guide/collections-and-loaders/diagrams/collection-pipeline-light.svg

<svg xmlns="http://www.w3.org/2000/svg" width="583pt" height="331pt" viewBox="0 0 583 331"><g id="graph0" class="graph" transform="translate(7.2 323.36)"><title>CollectionPipeline</title><g id="node1" class="node"><title>files</title><path fill="#dae8fc" stroke="#6c8ebf" d="M97.2-316.16H12c-6 0-12 6-12 12v22.08c0 6 6 12 12 12h85.2c6 0 12-6 12-12v-22.08c0-6-6-12-12-12"/><text xml:space="preserve" x="54.6" y="-302.12" fill="#333" font-family="Times,serif" font-size="10" text-anchor="middle">Files</text><text xml:space="preserve" x="54.6" y="-290.12" fill="#333" font-family="Times,serif" font-size="10" text-anchor="middle">content/posts/*.md</text><text xml:space="preserve" x="54.6" y="-278.12" fill="#333" font-family="Times,serif" font-size="10" text-anchor="middle">content/authors/*.yaml</text></g><g id="node2" class="node"><title>loader</title><path fill="#dae8fc" stroke="#6c8ebf" d="M202.38-316.16h-63.56c-6 0-12 6-12 12v22.08c0 6 6 12 12 12h63.56c6 0 12-6 12-12v-22.08c0-6-6-12-12-12"/><text xml:space="preserve" x="170.6" y="-302.12" fill="#333" font-family="Times,serif" font-size="10" text-anchor="middle">Loader</text><text xml:space="preserve" x="170.6" y="-290.12" fill="#333" font-family="Times,serif" font-size="10" text-anchor="middle">md / json / yaml /</text><text xml:space="preserve" x="170.6" y="-278.12" fill="#333" font-family="Times,serif" font-size="10" text-anchor="middle">custom</text></g><g id="edge1" class="edge"><title>files-&gt;loader</title><path fill="none" stroke="#aaa" d="M109.43-293.12h5.91"/><path fill="#aaa" stroke="#aaa" d="m115.12-296.62 10 3.5-10 3.5z"/></g><g id="node4" class="node"><title>slugify</title><path fill="#dae8fc" stroke="#6c8ebf" d="M88.9-241.08H22.3c-6 0-12 6-12 12v12c0 6 6 12 12 12h66.6c6 0 12-6 12-12v-12c0-6-6-12-12-12"/><text xml:space="preserve" x="55.6" y="-226.08" fill="#333" font-family="Times,serif" font-size="10" text-anchor="middle">slugify()</text><text xml:space="preserve" x="55.6" y="-214.08" fill="#333" font-family="Times,serif" font-size="10" text-anchor="middle">optional URL rule</text></g><g id="edge9" class="edge"><title>files-&gt;slugify</title><path fill="none" stroke="#aaa" stroke-dasharray="5,2" d="M54.93-269.84c.08 5.52.17 11.51.25 17.29"/><path fill="#aaa" stroke="#aaa" d="m58.68-252.79-3.35 10.05-3.65-9.95z"/></g><g id="node3" class="node"><title>raw</title><path fill="#dae8fc" stroke="#6c8ebf" d="M208.26-241.08h-77.32c-6 0-12 6-12 12v12c0 6 6 12 12 12h77.32c6 0 12-6 12-12v-12c0-6-6-12-12-12"/><text xml:space="preserve" x="169.6" y="-226.08" fill="#333" font-family="Times,serif" font-size="10" text-anchor="middle">RawEntry</text><text xml:space="preserve" x="169.6" y="-214.08" fill="#333" font-family="Times,serif" font-size="10" text-anchor="middle">data + content + slug</text></g><g id="edge2" class="edge"><title>loader-&gt;raw</title><path fill="none" stroke="#aaa" d="M170.27-269.84c-.08 5.52-.16 11.51-.25 17.29"/><path fill="#aaa" stroke="#aaa" d="m173.52-252.69-3.64 9.95-3.36-10.05z"/></g><g id="node5" class="node"><title>transform</title><path fill="#dae8fc" stroke="#6c8ebf" d="M211.92-176.08h-84.64c-6 0-12 6-12 12v12c0 6 6 12 12 12h84.64c6 0 12-6 12-12v-12c0-6-6-12-12-12"/><text xml:space="preserve" x="169.6" y="-161.08" fill="#333" font-family="Times,serif" font-size="10" text-anchor="middle">transform()</text><text xml:space="preserve" x="169.6" y="-149.08" fill="#333" font-family="Times,serif" font-size="10" text-anchor="middle">optional pre-validation</text></g><g id="edge3" class="edge"><title>raw-&gt;transform</title><path fill="none" stroke="#aaa" d="M169.6-204.86v17.52"/><path fill="#aaa" stroke="#aaa" d="m173.1-187.79-3.5 10-3.5-10z"/></g><g id="edge10" class="edge"><title>slugify-&gt;raw</title><path fill="none" stroke="#aaa" stroke-dasharray="5,2" d="M101.02-223.08h6.36"/><path fill="#aaa" stroke="#aaa" d="m107.19-226.58 10 3.5-10 3.5z"/></g><g id="node6" class="node"><title>schema</title><path fill="#dae8fc" stroke="#6c8ebf" d="M333.73-176.08h-80.26c-6 0-12 6-12 12v12c0 6 6 12 12 12h80.26c6 0 12-6 12-12v-12c0-6-6-12-12-12"/><text xml:space="preserve" x="293.6" y="-161.08" fill="#333" font-family="Times,serif" font-size="10" text-anchor="middle">schema</text><text xml:space="preserve" x="293.6" y="-149.08" fill="#333" font-family="Times,serif" font-size="10" text-anchor="middle">Zod validate + coerce</text></g><g id="edge4" class="edge"><title>transform-&gt;schema</title><path fill="none" stroke="#aaa" d="M224.34-158.08h5.5"/><path fill="#aaa" stroke="#aaa" d="m229.6-161.58 10 3.5-10 3.5z"/></g><g id="node7" class="node"><title>derived</title><path fill="#dae8fc" stroke="#6c8ebf" d="M329.67-111.08h-72.14c-6 0-12 6-12 12v12c0 6 6 12 12 12h72.14c6 0 12-6 12-12v-12c0-6-6-12-12-12"/><text xml:space="preserve" x="293.6" y="-96.08" fill="#333" font-family="Times,serif" font-size="10" text-anchor="middle">computed /</text><text xml:space="preserve" x="293.6" y="-84.08" fill="#333" font-family="Times,serif" font-size="10" text-anchor="middle">validate / validators</text></g><g id="edge5" class="edge"><title>schema-&gt;derived</title><path fill="none" stroke="#aaa" d="M293.6-139.86v17.52"/><path fill="#aaa" stroke="#aaa" d="m297.1-122.79-3.5 10-3.5-10z"/></g><g id="node8" class="node"><title>filter</title><path fill="#dae8fc" stroke="#6c8ebf" d="M425.37-111.08h-53.53c-6 0-12 6-12 12v12c0 6 6 12 12 12h53.53c6 0 12-6 12-12v-12c0-6-6-12-12-12"/><text xml:space="preserve" x="398.6" y="-96.08" fill="#333" font-family="Times,serif" font-size="10" text-anchor="middle">filter()</text><text xml:space="preserve" x="398.6" y="-84.08" fill="#333" font-family="Times,serif" font-size="10" text-anchor="middle">exclude entries</text></g><g id="edge6" class="edge"><title>derived-&gt;filter</title><path fill="none" stroke="#aaa" d="M342-93.08h6.36"/><path fill="#aaa" stroke="#aaa" d="m348.17-96.58 10 3.5-10 3.5z"/></g><g id="node9" class="node"><title>entries</title><path fill="#dae8fc" stroke="#6c8ebf" d="M430.65-41.04h-64.1c-6 0-12 6-12 12v12c0 6 6 12 12 12h64.1c6 0 12-6 12-12v-12c0-6-6-12-12-12"/><text xml:space="preserve" x="398.6" y="-26.04" fill="#333" font-family="Times,serif" font-size="10" text-anchor="middle">Collection entries</text><text xml:space="preserve" x="398.6" y="-14.04" fill="#333" font-family="Times,serif" font-size="10" text-anchor="middle">typed data + slug</text></g><g id="edge7" class="edge"><title>filter-&gt;entries</title><path fill="none" stroke="#aaa" d="M398.6-74.91v22.14"/><path fill="#aaa" stroke="#aaa" d="m402.1-52.95-3.5 10-3.5-10z"/></g><g id="node10" class="node"><title>consume</title><path fill="#dae8fc" stroke="#6c8ebf" d="M556.63-46.08h-84.06c-6 0-12 6-12 12V-12c0 6 6 12 12 12h84.06c6 0 12-6 12-12v-22.08c0-6-6-12-12-12"/><text xml:space="preserve" x="514.6" y="-32.04" fill="#333" font-family="Times,serif" font-size="10" text-anchor="middle">Consume via</text><text xml:space="preserve" x="514.6" y="-20.04" fill="#333" font-family="Times,serif" font-size="10" text-anchor="middle">createContentLayer() /</text><text xml:space="preserve" x="514.6" y="-8.04" fill="#333" font-family="Times,serif" font-size="10" text-anchor="middle">pagesmithContent()</text></g><g id="edge8" class="edge"><title>entries-&gt;consume</title><path fill="none" stroke="#aaa" d="M443.01-23.04h5.96"/><path fill="#aaa" stroke="#aaa" d="m448.83-26.54 10 3.5-10 3.5z"/></g></g></svg>

<?xml version="1.0" encoding="UTF-8" standalone="no"?>
<!DOCTYPE svg PUBLIC "-//W3C//DTD SVG 1.1//EN"
 "http://www.w3.org/Graphics/SVG/1.1/DTD/svg11.dtd">
<!-- Generated by graphviz version 14.1.5 (20260411.2331)
 -->
<!-- Title: CollectionPipeline Pages: 1 -->
<svg width="583pt" height="331pt"
 viewBox="0.00 0.00 583.00 331.00" xmlns="http://www.w3.org/2000/svg" xmlns:xlink="http://www.w3.org/1999/xlink">
<g id="graph0" class="graph" transform="scale(1 1) rotate(0) translate(7.2 323.36)">
<title>CollectionPipeline</title>
<!-- files -->
<g id="node1" class="node">
<title>files</title>
<path fill="#dae8fc" stroke="#6c8ebf" d="M97.2,-316.16C97.2,-316.16 12,-316.16 12,-316.16 6,-316.16 0,-310.16 0,-304.16 0,-304.16 0,-282.08 0,-282.08 0,-276.08 6,-270.08 12,-270.08 12,-270.08 97.2,-270.08 97.2,-270.08 103.2,-270.08 109.2,-276.08 109.2,-282.08 109.2,-282.08 109.2,-304.16 109.2,-304.16 109.2,-310.16 103.2,-316.16 97.2,-316.16"/>
<text xml:space="preserve" text-anchor="middle" x="54.6" y="-302.12" font-family="Times,serif" font-size="10.00" fill="#333333">Files</text>
<text xml:space="preserve" text-anchor="middle" x="54.6" y="-290.12" font-family="Times,serif" font-size="10.00" fill="#333333">content/posts/*.md</text>
<text xml:space="preserve" text-anchor="middle" x="54.6" y="-278.12" font-family="Times,serif" font-size="10.00" fill="#333333">content/authors/*.yaml</text>
</g>
<!-- loader -->
<g id="node2" class="node">
<title>loader</title>
<path fill="#dae8fc" stroke="#6c8ebf" d="M202.38,-316.16C202.38,-316.16 138.82,-316.16 138.82,-316.16 132.82,-316.16 126.82,-310.16 126.82,-304.16 126.82,-304.16 126.82,-282.08 126.82,-282.08 126.82,-276.08 132.82,-270.08 138.82,-270.08 138.82,-270.08 202.38,-270.08 202.38,-270.08 208.38,-270.08 214.38,-276.08 214.38,-282.08 214.38,-282.08 214.38,-304.16 214.38,-304.16 214.38,-310.16 208.38,-316.16 202.38,-316.16"/>
<text xml:space="preserve" text-anchor="middle" x="170.6" y="-302.12" font-family="Times,serif" font-size="10.00" fill="#333333">Loader</text>
<text xml:space="preserve" text-anchor="middle" x="170.6" y="-290.12" font-family="Times,serif" font-size="10.00" fill="#333333">md / json / yaml /</text>
<text xml:space="preserve" text-anchor="middle" x="170.6" y="-278.12" font-family="Times,serif" font-size="10.00" fill="#333333">custom</text>
</g>
<!-- files&#45;&gt;loader -->
<g id="edge1" class="edge">
<title>files&#45;&gt;loader</title>
<path fill="none" stroke="#aaaaaa" d="M109.43,-293.12C111.4,-293.12 113.37,-293.12 115.34,-293.12"/>
<polygon fill="#aaaaaa" stroke="#aaaaaa" points="115.12,-296.62 125.12,-293.12 115.12,-289.62 115.12,-296.62"/>
</g>
<!-- slugify -->
<g id="node4" class="node">
<title>slugify</title>
<path fill="#dae8fc" stroke="#6c8ebf" d="M88.9,-241.08C88.9,-241.08 22.3,-241.08 22.3,-241.08 16.3,-241.08 10.3,-235.08 10.3,-229.08 10.3,-229.08 10.3,-217.08 10.3,-217.08 10.3,-211.08 16.3,-205.08 22.3,-205.08 22.3,-205.08 88.9,-205.08 88.9,-205.08 94.9,-205.08 100.9,-211.08 100.9,-217.08 100.9,-217.08 100.9,-229.08 100.9,-229.08 100.9,-235.08 94.9,-241.08 88.9,-241.08"/>
<text xml:space="preserve" text-anchor="middle" x="55.6" y="-226.08" font-family="Times,serif" font-size="10.00" fill="#333333">slugify()</text>
<text xml:space="preserve" text-anchor="middle" x="55.6" y="-214.08" font-family="Times,serif" font-size="10.00" fill="#333333">optional URL rule</text>
</g>
<!-- files&#45;&gt;slugify -->
<g id="edge9" class="edge">
<title>files&#45;&gt;slugify</title>
<path fill="none" stroke="#aaaaaa" stroke-dasharray="5,2" d="M54.93,-269.84C55.01,-264.32 55.1,-258.33 55.18,-252.55"/>
<polygon fill="#aaaaaa" stroke="#aaaaaa" points="58.68,-252.79 55.33,-242.74 51.68,-252.69 58.68,-252.79"/>
</g>
<!-- raw -->
<g id="node3" class="node">
<title>raw</title>
<path fill="#dae8fc" stroke="#6c8ebf" d="M208.26,-241.08C208.26,-241.08 130.94,-241.08 130.94,-241.08 124.94,-241.08 118.94,-235.08 118.94,-229.08 118.94,-229.08 118.94,-217.08 118.94,-217.08 118.94,-211.08 124.94,-205.08 130.94,-205.08 130.94,-205.08 208.26,-205.08 208.26,-205.08 214.26,-205.08 220.26,-211.08 220.26,-217.08 220.26,-217.08 220.26,-229.08 220.26,-229.08 220.26,-235.08 214.26,-241.08 208.26,-241.08"/>
<text xml:space="preserve" text-anchor="middle" x="169.6" y="-226.08" font-family="Times,serif" font-size="10.00" fill="#333333">RawEntry</text>
<text xml:space="preserve" text-anchor="middle" x="169.6" y="-214.08" font-family="Times,serif" font-size="10.00" fill="#333333">data + content + slug</text>
</g>
<!-- loader&#45;&gt;raw -->
<g id="edge2" class="edge">
<title>loader&#45;&gt;raw</title>
<path fill="none" stroke="#aaaaaa" d="M170.27,-269.84C170.19,-264.32 170.11,-258.33 170.02,-252.55"/>
<polygon fill="#aaaaaa" stroke="#aaaaaa" points="173.52,-252.69 169.88,-242.74 166.52,-252.79 173.52,-252.69"/>
</g>
<!-- transform -->
<g id="node5" class="node">
<title>transform</title>
<path fill="#dae8fc" stroke="#6c8ebf" d="M211.92,-176.08C211.92,-176.08 127.28,-176.08 127.28,-176.08 121.28,-176.08 115.28,-170.08 115.28,-164.08 115.28,-164.08 115.28,-152.08 115.28,-152.08 115.28,-146.08 121.28,-140.08 127.28,-140.08 127.28,-140.08 211.92,-140.08 211.92,-140.08 217.92,-140.08 223.92,-146.08 223.92,-152.08 223.92,-152.08 223.92,-164.08 223.92,-164.08 223.92,-170.08 217.92,-176.08 211.92,-176.08"/>
<text xml:space="preserve" text-anchor="middle" x="169.6" y="-161.08" font-family="Times,serif" font-size="10.00" fill="#333333">transform()</text>
<text xml:space="preserve" text-anchor="middle" x="169.6" y="-149.08" font-family="Times,serif" font-size="10.00" fill="#333333">optional pre&#45;validation</text>
</g>
<!-- raw&#45;&gt;transform -->
<g id="edge3" class="edge">
<title>raw&#45;&gt;transform</title>
<path fill="none" stroke="#aaaaaa" d="M169.6,-204.86C169.6,-199.45 169.6,-193.32 169.6,-187.34"/>
<polygon fill="#aaaaaa" stroke="#aaaaaa" points="173.1,-187.79 169.6,-177.79 166.1,-187.79 173.1,-187.79"/>
</g>
<!-- slugify&#45;&gt;raw -->
<g id="edge10" class="edge">
<title>slugify&#45;&gt;raw</title>
<path fill="none" stroke="#aaaaaa" stroke-dasharray="5,2" d="M101.02,-223.08C103.14,-223.08 105.26,-223.08 107.38,-223.08"/>
<polygon fill="#aaaaaa" stroke="#aaaaaa" points="107.19,-226.58 117.19,-223.08 107.19,-219.58 107.19,-226.58"/>
</g>
<!-- schema -->
<g id="node6" class="node">
<title>schema</title>
<path fill="#dae8fc" stroke="#6c8ebf" d="M333.73,-176.08C333.73,-176.08 253.47,-176.08 253.47,-176.08 247.47,-176.08 241.47,-170.08 241.47,-164.08 241.47,-164.08 241.47,-152.08 241.47,-152.08 241.47,-146.08 247.47,-140.08 253.47,-140.08 253.47,-140.08 333.73,-140.08 333.73,-140.08 339.73,-140.08 345.73,-146.08 345.73,-152.08 345.73,-152.08 345.73,-164.08 345.73,-164.08 345.73,-170.08 339.73,-176.08 333.73,-176.08"/>
<text xml:space="preserve" text-anchor="middle" x="293.6" y="-161.08" font-family="Times,serif" font-size="10.00" fill="#333333">schema</text>
<text xml:space="preserve" text-anchor="middle" x="293.6" y="-149.08" font-family="Times,serif" font-size="10.00" fill="#333333">Zod validate + coerce</text>
</g>
<!-- transform&#45;&gt;schema -->
<g id="edge4" class="edge">
<title>transform&#45;&gt;schema</title>
<path fill="none" stroke="#aaaaaa" d="M224.34,-158.08C226.17,-158.08 228.01,-158.08 229.84,-158.08"/>
<polygon fill="#aaaaaa" stroke="#aaaaaa" points="229.6,-161.58 239.6,-158.08 229.6,-154.58 229.6,-161.58"/>
</g>
<!-- derived -->
<g id="node7" class="node">
<title>derived</title>
<path fill="#dae8fc" stroke="#6c8ebf" d="M329.67,-111.08C329.67,-111.08 257.53,-111.08 257.53,-111.08 251.53,-111.08 245.53,-105.08 245.53,-99.08 245.53,-99.08 245.53,-87.08 245.53,-87.08 245.53,-81.08 251.53,-75.08 257.53,-75.08 257.53,-75.08 329.67,-75.08 329.67,-75.08 335.67,-75.08 341.67,-81.08 341.67,-87.08 341.67,-87.08 341.67,-99.08 341.67,-99.08 341.67,-105.08 335.67,-111.08 329.67,-111.08"/>
<text xml:space="preserve" text-anchor="middle" x="293.6" y="-96.08" font-family="Times,serif" font-size="10.00" fill="#333333">computed /</text>
<text xml:space="preserve" text-anchor="middle" x="293.6" y="-84.08" font-family="Times,serif" font-size="10.00" fill="#333333">validate / validators</text>
</g>
<!-- schema&#45;&gt;derived -->
<g id="edge5" class="edge">
<title>schema&#45;&gt;derived</title>
<path fill="none" stroke="#aaaaaa" d="M293.6,-139.86C293.6,-134.45 293.6,-128.32 293.6,-122.34"/>
<polygon fill="#aaaaaa" stroke="#aaaaaa" points="297.1,-122.79 293.6,-112.79 290.1,-122.79 297.1,-122.79"/>
</g>
<!-- filter -->
<g id="node8" class="node">
<title>filter</title>
<path fill="#dae8fc" stroke="#6c8ebf" d="M425.37,-111.08C425.37,-111.08 371.84,-111.08 371.84,-111.08 365.84,-111.08 359.84,-105.08 359.84,-99.08 359.84,-99.08 359.84,-87.08 359.84,-87.08 359.84,-81.08 365.84,-75.08 371.84,-75.08 371.84,-75.08 425.37,-75.08 425.37,-75.08 431.37,-75.08 437.37,-81.08 437.37,-87.08 437.37,-87.08 437.37,-99.08 437.37,-99.08 437.37,-105.08 431.37,-111.08 425.37,-111.08"/>
<text xml:space="preserve" text-anchor="middle" x="398.6" y="-96.08" font-family="Times,serif" font-size="10.00" fill="#333333">filter()</text>
<text xml:space="preserve" text-anchor="middle" x="398.6" y="-84.08" font-family="Times,serif" font-size="10.00" fill="#333333">exclude entries</text>
</g>
<!-- derived&#45;&gt;filter -->
<g id="edge6" class="edge">
<title>derived&#45;&gt;filter</title>
<path fill="none" stroke="#aaaaaa" d="M342,-93.08C344.12,-93.08 346.24,-93.08 348.36,-93.08"/>
<polygon fill="#aaaaaa" stroke="#aaaaaa" points="348.17,-96.58 358.17,-93.08 348.17,-89.58 348.17,-96.58"/>
</g>
<!-- entries -->
<g id="node9" class="node">
<title>entries</title>
<path fill="#dae8fc" stroke="#6c8ebf" d="M430.65,-41.04C430.65,-41.04 366.55,-41.04 366.55,-41.04 360.55,-41.04 354.55,-35.04 354.55,-29.04 354.55,-29.04 354.55,-17.04 354.55,-17.04 354.55,-11.04 360.55,-5.04 366.55,-5.04 366.55,-5.04 430.65,-5.04 430.65,-5.04 436.65,-5.04 442.65,-11.04 442.65,-17.04 442.65,-17.04 442.65,-29.04 442.65,-29.04 442.65,-35.04 436.65,-41.04 430.65,-41.04"/>
<text xml:space="preserve" text-anchor="middle" x="398.6" y="-26.04" font-family="Times,serif" font-size="10.00" fill="#333333">Collection entries</text>
<text xml:space="preserve" text-anchor="middle" x="398.6" y="-14.04" font-family="Times,serif" font-size="10.00" fill="#333333">typed data + slug</text>
</g>
<!-- filter&#45;&gt;entries -->
<g id="edge7" class="edge">
<title>filter&#45;&gt;entries</title>
<path fill="none" stroke="#aaaaaa" d="M398.6,-74.91C398.6,-68.19 398.6,-60.3 398.6,-52.77"/>
<polygon fill="#aaaaaa" stroke="#aaaaaa" points="402.1,-52.95 398.6,-42.95 395.1,-52.95 402.1,-52.95"/>
</g>
<!-- consume -->
<g id="node10" class="node">
<title>consume</title>
<path fill="#dae8fc" stroke="#6c8ebf" d="M556.63,-46.08C556.63,-46.08 472.57,-46.08 472.57,-46.08 466.57,-46.08 460.57,-40.08 460.57,-34.08 460.57,-34.08 460.57,-12 460.57,-12 460.57,-6 466.57,0 472.57,0 472.57,0 556.63,0 556.63,0 562.63,0 568.63,-6 568.63,-12 568.63,-12 568.63,-34.08 568.63,-34.08 568.63,-40.08 562.63,-46.08 556.63,-46.08"/>
<text xml:space="preserve" text-anchor="middle" x="514.6" y="-32.04" font-family="Times,serif" font-size="10.00" fill="#333333">Consume via</text>
<text xml:space="preserve" text-anchor="middle" x="514.6" y="-20.04" font-family="Times,serif" font-size="10.00" fill="#333333">createContentLayer() /</text>
<text xml:space="preserve" text-anchor="middle" x="514.6" y="-8.04" font-family="Times,serif" font-size="10.00" fill="#333333">pagesmithContent()</text>
</g>
<!-- entries&#45;&gt;consume -->
<g id="edge8" class="edge">
<title>entries&#45;&gt;consume</title>
<path fill="none" stroke="#aaaaaa" d="M443.01,-23.04C444.99,-23.04 446.98,-23.04 448.97,-23.04"/>
<polygon fill="#aaaaaa" stroke="#aaaaaa" points="448.83,-26.54 458.83,-23.04 448.83,-19.54 448.83,-26.54"/>
</g>
</g>
</svg>
